X:37
T:Johnnie of Braidislee
Z:Jack Campin, http://www.campin.me.uk/
F:Jack Campin's Nine-Note Tunebook
% last edit 07-03-2013
S:the singing of Ted Polytello at Auchtermuchty, c.1992
M:4/4
L:1/8
Q:1/2=62
K:GDor
 z2 |G2 GA  B2  D2 |G2 G2 B2
 DD |F2 FF (FG)(AB)|c6
(Bc)|d2 d2  d2 (cB)|c2 d2 G2
 BA |G2 F2  D2  D2 |B4-   Bz c2-|c4- cz
(BA)|G2 F2  D2  F2 |G6         |]

